train-variant.svg

<svg fill="currentColor" viewBox="0 0 24 24"><path d="M18 10H6V5h12m-6 12a2 2 0 0 1-2-2c0-1.11.89-2 2-2a2 2 0 0 1 2 2 2 2 0 0 1-2 2m-8-1.5A3.5 3.5 0 0 0 7.5 19L6 20.5v.5h12v-.5L16.5 19a3.5 3.5 0 0 0 3.5-3.5V5c0-3.5-3.58-4-8-4s-8 .5-8 4z"/></svg>

<svg  viewBox="0 0 24 24" fill="currentColor"><path  d="M18,10H6V5H18M12,17C10.89,17 10,16.1 10,15C10,13.89 10.89,13 12,13A2,2 0 0,1 14,15A2,2 0 0,1 12,17M4,15.5A3.5,3.5 0 0,0 7.5,19L6,20.5V21H18V20.5L16.5,19A3.5,3.5 0 0,0 20,15.5V5C20,1.5 16.42,1 12,1C7.58,1 4,1.5 4,5V15.5Z"/></svg>
